X:1
T:Title
%%score { ( 1 3 ) | ( 2 4 ) }
L:1/8
M:4/4
K:Eb
V:1 treble nm="Grand Piano"
V:3 treble 
V:2 bass 
V:4 bass 
V:1
 z4 z2[Q:1/4=108] E2 | G2 [Ac]2 [GB]2 E2 | G2 [Ac]2 [GB]2 [EG]2 | [Ge]3 [Ge] [Fd]2 [Ec]2 | %4
[M:3/4] B6 |[M:1/4] [B,DA]2 |[M:4/4] [B,EG]2 [EAc]2 [EGB]2 [G,E]2 | [B,EG]2 [EAc]2 [EGB]2 [B,EG]2 | %8
 [_DEB]3 [CFA] [B,EG]2 [A,=DF]2 |[M:3/4] [G,E]6 |[M:1/4] z2 |[M:4/4] z2 [CA]2 [B,G]2 z2 | %12
 z2 [CA]2 [B,G]2 [EAc]2 | [EGB]2 [B,EG]2 [=A,CF]2 [A,CE]2 |[M:3/4] D2 z2 z2 |[M:1/4] E2 | %16
[M:4/4] G2 [Ac]2 [GB]2 E2 | G2 [Ac]2 [GB]2 [Ge]2 | [Ad]3 [B,DB] [DA]2 [A,DF]2 |[M:3/4] [G,E]6 |] %20
V:2
 z4 z2 [E,G,]2 | [E,B,E]2 [E,E]2 [E,E]2 [E,G,]2 | [E,B,E]2 [E,E]2 [E,E]2 [E,B,]2 | %3
 [E,B,]3 [E,B,] [F,B,]2 [F,=A,]2 |[M:3/4] [B,,B,]2 [C,F,]2 [D,B,]2 |[M:1/4] B,,2 | %6
[M:4/4] E,2 E,2 E,2 E,2 | E,2 E,2 E,2 E,2 | G,,3 A,, B,,2 B,,2 |[M:3/4] E,6 |[M:1/4][K:treble] c2 | %11
[M:4/4] e6[K:bass][K:treble] z2 | e6[K:bass] z2 | E,2 E,2 F,2 F,2 |[M:3/4] B,,2 C,2 D,2 | %15
[M:1/4] [E,G,]2 |[M:4/4] [E,B,E]2 [E,E]2 [E,E]2 [E,G,]2 | [E,B,E]2 [E,E]2 [E,E]2 [E,B,]2 | %18
 [F,B,]3 F, B,2 B,,2 |[M:3/4] E,6 |] %20
V:3
 x8 | x8 | x8 | x8 |[M:3/4] D2 E2 F2 |[M:1/4] x2 |[M:4/4] x8 | x8 | x8 |[M:3/4] x6 |[M:1/4] x2 | %11
[M:4/4] x8 | x8 | x8 |[M:3/4] [B,F]2- [B,EF-]2 [B,F]2 |[M:1/4] x2 |[M:4/4] x8 | x8 | x8 | %19
[M:3/4] x6 |] %20
V:4
 x8 | x8 | x8 | x8 |[M:3/4] x6 |[M:1/4] x2 |[M:4/4] x8 | x8 | x8 |[M:3/4] x6 | %10
[M:1/4][K:treble] x2 |[M:4/4] z2[K:bass] A,2 E,2[K:treble] c2 | z2[K:bass] A,2 E,2 E,2 | x8 | %14
[M:3/4] x6 |[M:1/4] x2 |[M:4/4] x8 | x8 | x8 |[M:3/4] x6 |] %20

